core/solid/work-education/workspace-desk.svg

<svg xmlns="http://www.w3.org/2000/svg" fill="none" viewBox="0 0 14 14" id="Workspace-Desk--Streamline-Core">
  <desc>
    Workspace Desk Streamline Icon: https://streamlinehq.com
  </desc>
  <g id="workspace-desk--workspace-desk-work">
    <path id="Union" fill="#000000" fill-rule="evenodd" d="m3.78411 1.50464 6.43199 0c0.0188 0 0.034 0.01521 0.034 0.03398v3.932c0 0.01877 -0.0152 0.03399 -0.034 0.03399l-6.43199 0c-0.01877 0 -0.03399 -0.01522 -0.03399 -0.03398v-3.932c0 -0.01877 0.01522 -0.03399 0.03399 -0.03399ZM10.2161 0.00463867 3.78411 0.00464058c-0.8472 0 -1.53399 0.68678842 -1.53399 1.53398942v3.932c0 0.84719 0.68679 1.53398 1.53399 1.53398l2.46468 0 0.00005 1.01614H2.20242c-1.02644 0 -1.858548 0.83211 -1.858548 1.85855v3.3662c0 0.4142 0.335787 0.75 0.749998 0.75 0.41422 0 0.75 -0.3358 0.75 -0.75v-2.5177H12.1562v2.5177c0 0.4142 0.3358 0.75 0.75 0.75s0.75 -0.3358 0.75 -0.75V9.8793c0 -1.02643 -0.8321 -1.85855 -1.8586 -1.85855H7.74884l-0.00005 -1.01614 2.46731 0c0.8472 0 1.534 -0.68679 1.534 -1.53399v-3.932c0 -0.847193 -0.6868 -1.53398133 -1.534 -1.53398133Z" clip-rule="evenodd" stroke-width="1"></path>
  </g>
</svg>

<svg xmlns="http://www.w3.org/2000/svg" fill="none" viewBox="0 0 14 14"><g id="workspace-desk--workspace-desk-work"><path id="Union" fill="#3e3e3e" fill-rule="evenodd" d="M3.784 1.505h6.432c.019 0 .034.015.034.034V5.47a.034.034 0 0 1-.034.034H3.784a.034.034 0 0 1-.034-.034V1.539c0-.02.015-.034.034-.034Zm6.432-1.5H3.784C2.937.005 2.25.69 2.25 1.539V5.47c0 .847.687 1.534 1.534 1.534H6.25V8.02H2.202A1.859 1.859 0 0 0 .344 9.879v3.367a.75.75 0 0 0 1.5 0v-2.518h10.312v2.518a.75.75 0 0 0 1.5 0V9.878a1.859 1.859 0 0 0-1.858-1.858h-4.05V7.005h2.468c.847 0 1.534-.687 1.534-1.534V1.539c0-.848-.687-1.534-1.534-1.534Z" clip-rule="evenodd"></path></g></svg>
